X:1
T:Help Me, 11.10.11.10
T:Ira David Sankey, 1895
T:Help Me, 11.10.11.10
T:Public Domain
C:Ira David Sankey, 1895
Z:Public Domain
%%score ( 1 2 ) ( 3 4 )
L:1/8
M:4/4
K:Bb
V:1 treble 
V:2 treble 
V:3 bass 
V:4 bass 
V:1
 [DF]4 [EG]2 [EA]2 | [DB]6 [DB]2 | [EB]3 [EB] [EA]2 [EG]2 | [DG]4 [D^F]4 | [B,G]4 [DA]2 [DA]2 | %5
 [DB]4 [Fc]4 | [Fd]2 [Fd]2 [Fc]2 [=EB]2 | [Fc]8 | F4 [FG]2 [EA]2 | [DB]6 [FB]2 | %10
 [DB]3 [DB] [Gc]2 [Gd]2 | [Ge]4 [EA]4 | [DB]4 [^CA]2 [CG]2 | [DF]4 [FB]4 | %14
 [GB]2 [Gc]2 [FB]2 [EA]2 | [DB]8 |] %16
V:2
 x8 | x8 | x8 | x8 | x8 | x8 | x8 | x8 | F4 x4 | x8 | x8 | x8 | x8 | x8 | x8 | x8 |] %16
V:3
 [B,,B,]4 [E,B,]2 [C,F,]2 | [B,,F,]6 [B,,_A,]2 | [E,G,]3 [E,G,] [C,C]2 [C,B,]2 | [D,B,]4 [D,A,]4 | %4
 G,4 [D,^F,]2 [D,F,]2 | G,4 [F,A,]4 | B,2 B,2 [A,C]2 [G,C]2 | F,4 E,4 | [D,B,]4 [D,B,]2 [C,F,]2 | %9
 [B,,F,]6 [D,B,]2 | [G,B,]3 [G,B,] [E,B,]2 [D,=B,]2 | [C,C]4 [F,C]4 | [G,B,]4 [=E,B,]2 [E,B,]2 | %13
 [F,B,]4 [D,B,]4 | [C,E]2 [C,E]2 [F,D]2 [F,C]2 | [B,,B,]8 |] %16
V:4
 x8 | x8 | x8 | x8 | G,4 x4 | G,4 x4 | B,2 B,2 x4 | A,8 | x8 | x8 | x8 | x8 | x8 | x8 | x8 | x8 |] %16

